src/img/icons/facebook.svg

<svg width="32" height="32" viewBox="0 0 32 32" fill="none" xmlns="http://www.w3.org/2000/svg">
<path d="M12.2734 18.0625H9.17969V13.4688H12.2734V11.5C12.2734 6.39062 14.5703 4 19.5859 4C20.5234 4 22.1641 4.1875 22.8203 4.375V8.54688C22.4922 8.5 21.8828 8.5 21.0859 8.5C18.6484 8.5 17.7109 9.4375 17.7109 11.8281V13.4688H22.5859L21.7422 18.0625H17.7109V28H12.2734V18.0625Z" fill="#131212"/>
</svg>

<svg xmlns="http://www.w3.org/2000/svg" viewBox="0 0 32 32">
  <path fill="currentColor" d="M12.273 18.063H9.18v-4.594h3.093V11.5c0-5.11 2.297-7.5 7.313-7.5.937 0 2.578.188 3.234.375v4.172c-.328-.047-.937-.047-1.734-.047-2.438 0-3.375.938-3.375 3.328v1.64h4.875l-.844 4.595h-4.031V28h-5.438v-9.938Z"/>
</svg>
